images/good-20morning-20america.svg

<svg fill="none" height="54" viewBox="0 0 100 54" width="100" xmlns="http://www.w3.org/2000/svg"><path clip-rule="evenodd" d="m31.2203 12.6073c3.4294 0 6.3124-2.78877 6.3124-6.06746v-.92331h-6.3689v2.52497h2.8076c-.6407 1.31901-1.6582 1.54513-2.7511 1.54513-2.5249 0-3.2787-1.79009-3.2787-3.27869s.7349-3.3729 3.1845-3.3729c1.3379 0 2.2988.50876 2.7511 1.20595l.0942.15075h3.1468l-.1508-.45224c-.6595-1.82777-2.9018-3.768602-5.7848-3.768602-3.5048 0-6.3501 2.788772-6.3501 6.218202-.0188 3.42943 2.8642 6.2182 6.3878 6.2182zm50.5363 13.3033c3.4106 0 6.2936-2.6946 6.2936-5.8979v-.8856h-6.3313v2.4684h2.7888c-.6407 1.2813-1.6393 1.5074-2.7511 1.5074-2.5061 0-3.2787-1.7524-3.2787-3.1844 0-1.4509.7349-3.2787 3.1657-3.2787 1.319 0 2.28.5087 2.7322 1.1683l.0942.1507h3.1468l-.1507-.4334c-.6595-1.7712-2.9019-3.6555-5.766-3.6555-3.486 0-6.3124 2.7134-6.3124 6.0297 0 3.2976 2.8641 6.011 6.3689 6.011zm-31.2034-19.48385c0 3.41059-2.7887 6.18055-6.237 6.18055s-6.237-2.76996-6.237-6.18055c0-3.42943 2.7887-6.237038 6.237-6.237038 3.4294 0 6.237 2.788768 6.237 6.237038zm-3.0148 0c0-1.84661-1.4509-3.33521-3.2222-3.33521-1.7712 0-3.2221 1.4886-3.2221 3.33521 0 1.80893 1.4509 3.29753 3.2221 3.29753 1.7713 0 3.2222-1.46975 3.2222-3.29753zm9.9483 6.18055c3.4483 0 6.2371-2.76996 6.2371-6.18055 0-3.44827-2.8076-6.237038-6.2371-6.237038-3.4482 0-6.237 2.807608-6.237 6.237038 0 3.41059 2.7888 6.18055 6.237 6.18055zm0-9.51576c1.7713 0 3.2222 1.4886 3.2222 3.33521 0 1.82778-1.4509 3.29753-3.2222 3.29753-1.7712 0-3.2221-1.4886-3.2221-3.29753 0-1.84661 1.4509-3.33521 3.2221-3.33521zm17.5053 3.33533c0 2.20464-1.2248 4.22083-3.1091 5.18183-.9987.5088-2.4119.7726-4.2209.7726h-3.1656v-11.965353h3.128c3.1279 0 4.4846.791403 5.2383 1.394383 1.3002 1.03637 2.1293 2.8453 2.1293 4.61654zm-4.1643-2.52496c-.848-.71604-1.922-.86678-3.2976-.86678h-.0565v6.72696h.1131c1.1871 0 1.922-.07537 2.7887-.50876.9987-.50876 1.6394-1.6205 1.6394-2.82646 0-.96099-.4522-1.94083-1.1871-2.52496zm-48.9727 15.84679v6.1428h3.1279v-11.758h-4.1832l-2.4307 6.7835-2.4684-6.7835h-4.1832v11.758h3.1279v-6.1239l2.3743 6.1239h2.2611zm3.5804.2828c0-3.3729 2.8265-6.124 6.2936-6.124s6.2936 2.7511 6.2936 6.124c0 3.3352-2.8265 6.0674-6.2936 6.0674s-6.2936-2.7134-6.2936-6.0674zm3.128 0c0 1.7335 1.4132 3.1656 3.1656 3.1656s3.1656-1.4132 3.1656-3.1656c0-1.7713-1.4132-3.2033-3.1656-3.2033s-3.1656 1.432-3.1656 3.2033zm17.6746.7536c.8856-.8291 1.1871-2.0728 1.1871-2.883 0-1.5451-.9233-2.5061-1.4698-2.9395-.7348-.5842-1.6205-.8291-2.9772-.8291h-4.1643v11.758h3.1091v-3.5801l2.5438 3.5801h3.3918l-3.1845-4.2208c.4711-.1507 1.0175-.3769 1.564-.8856zm-4.2962-4.0701h1.0175c1.6205 0 1.6959 1.1306 1.6959 1.3567 0 .4145-.1696 1.3755-1.6959 1.3755h-1.0175zm18.6734-2.5815h2.7699v11.758h-2.7699zm-8.8378 5.2007 4.2397 6.5573h3.2222v-11.758h-3.1091v6.5574l-4.202-6.5574h-3.1845v11.758h3.0337zm20.1439 6.5573-4.2585-6.5573v6.5573h-3.0149v-11.758h3.1656l4.202 6.5574v-6.5574h3.1279v11.758zm18.0892 1.7902-6.595 15.7151h4.6354l1.0363-2.6003h5.2761l1.0364 2.6003h4.6353l-6.3124-15.7151zm3.3729 10.1376h-3.354l1.677-5.0311zm-93.197853 5.5775 6.595063-15.7151h3.69319l6.3125 15.7151h-4.6354l-1.0364-2.6003h-5.2572l-1.03637 2.6003zm6.613903-5.5775h3.35405l-1.67702-5.0311zm19.16315-.8668-3.3541-9.2708h-5.3702v15.7151h3.9759v-8.7997l3.2221 8.7997h2.9961l3.2221-8.8562v8.8562h3.9759v-15.7151h-5.3703zm20.3315 6.4443h-9.61v-15.7151h9.61v3.241h-5.5022v2.7511h5.2572v3.241h-5.2572v2.9018h5.5022zm12.5497-6.5574c1.2625-1.0929 1.6959-3.0902 1.6959-4.1643 0-2.0539-1.3002-3.5613-2.0728-4.1455-1.0363-.7725-2.3176-.8479-4.2585-.8479h-5.6152v15.7151h3.957v-5.1253l3.5237 5.1253h4.7484l-4.0889-5.408c.716-.1695 1.2625-.4145 2.1104-1.1494zm-6.2936-5.9167h1.6205c2.4873 0 2.6004 1.6393 2.6004 1.9597 0 .603-.245 1.9973-2.6004 1.9973h-1.6205zm10.3828-3.241h3.7686v15.7151h-3.7686zm22.3104 9.6665h-4.6542s-1.0175 2.5438-3.486 2.5438c-2.4684 0-4.7296-1.7524-4.7296-4.3716 0-2.9395 2.3366-4.2397 4.6166-4.2397s3.5425 2.3177 3.5425 2.3177h4.7107c.0566-.0565.0754-.4522.0377-.5653-.5464-1.5074-2.8264-5.6529-7.8764-5.6529-6.1428 0-9.2142 3.7121-9.2142 8.1025 0 4.5412 3.6932 8.2344 9.2142 8.2344 5.4457 0 7.7634-5.521 7.8199-5.766.0377-.2449.0188-.6029.0188-.6029zm14.9426 13.5103c-59.2429-10.6086-99.435101 1.0364-99.435101 1.0364 49.086101-7.5372 88.260701 1.3755 89.504401 2.0539.7914-.8103 6.6139-2.638 9.9307-3.0903z" fill="#fff" fill-rule="evenodd"/></svg>

<svg width="100" height="54" viewBox="0 0 100 54" fill="none" xmlns="http://www.w3.org/2000/svg">
<path fill-rule="evenodd" clip-rule="evenodd" d="M31.2203 12.6073C34.6497 12.6073 37.5327 9.81853 37.5327 6.53984V5.61653H31.1638V8.1415H33.9714C33.3307 9.46051 32.3132 9.68663 31.2203 9.68663C28.6954 9.68663 27.9416 7.89654 27.9416 6.40794C27.9416 4.91934 28.6765 3.03504 31.1261 3.03504C32.464 3.03504 33.4249 3.5438 33.8772 4.24099L33.9714 4.39174H37.1182L36.9674 3.9395C36.3079 2.11173 34.0656 0.170898 31.1826 0.170898C27.6778 0.170898 24.8325 2.95967 24.8325 6.3891C24.8137 9.81853 27.6967 12.6073 31.2203 12.6073ZM81.7566 25.9106C85.1672 25.9106 88.0502 23.216 88.0502 20.0127V19.1271H81.7189V21.5955H84.5077C83.867 22.8768 82.8684 23.1029 81.7566 23.1029C79.2505 23.1029 78.4779 21.3505 78.4779 19.9185C78.4779 18.4676 79.2128 16.6398 81.6436 16.6398C82.9626 16.6398 83.9236 17.1485 84.3758 17.8081L84.47 17.9588H87.6168L87.4661 17.5254C86.8066 15.7542 84.5642 13.8699 81.7001 13.8699C78.2141 13.8699 75.3877 16.5833 75.3877 19.8996C75.3877 23.1972 78.2518 25.9106 81.7566 25.9106ZM50.5532 6.42675C50.5532 9.83734 47.7645 12.6073 44.3162 12.6073C40.8679 12.6073 38.0792 9.83734 38.0792 6.42675C38.0792 2.99732 40.8679 0.189712 44.3162 0.189712C47.7456 0.189712 50.5532 2.97848 50.5532 6.42675ZM47.5384 6.42675C47.5384 4.58014 46.0875 3.09154 44.3162 3.09154C42.545 3.09154 41.0941 4.58014 41.0941 6.42675C41.0941 8.23568 42.545 9.72428 44.3162 9.72428C46.0875 9.72428 47.5384 8.25453 47.5384 6.42675ZM57.4867 12.6073C60.935 12.6073 63.7238 9.83734 63.7238 6.42675C63.7238 2.97848 60.9162 0.189712 57.4867 0.189712C54.0385 0.189712 51.2497 2.99732 51.2497 6.42675C51.2497 9.83734 54.0385 12.6073 57.4867 12.6073ZM57.4867 3.09154C59.258 3.09154 60.7089 4.58014 60.7089 6.42675C60.7089 8.25453 59.258 9.72428 57.4867 9.72428C55.7155 9.72428 54.2646 8.23568 54.2646 6.42675C54.2646 4.58014 55.7155 3.09154 57.4867 3.09154ZM74.992 6.42687C74.992 8.63151 73.7672 10.6477 71.8829 11.6087C70.8842 12.1175 69.471 12.3813 67.662 12.3813H64.4964V0.415947H67.6244C70.7523 0.415947 72.109 1.20735 72.8627 1.81033C74.1629 2.8467 74.992 4.65563 74.992 6.42687ZM70.8277 3.90191C69.9797 3.18587 68.9057 3.03513 67.5301 3.03513H67.4736V9.76209H67.5867C68.7738 9.76209 69.5087 9.68672 70.3754 9.25333C71.3741 8.74457 72.0148 7.63283 72.0148 6.42687C72.0148 5.46588 71.5626 4.48604 70.8277 3.90191ZM21.855 19.7487V25.8915H24.9829V14.1335H20.7997L18.369 20.917L15.9006 14.1335H11.7174V25.8915H14.8453V19.7676L17.2196 25.8915H19.4807L21.855 19.7487ZM25.4354 20.0315C25.4354 16.6586 28.2619 13.9075 31.729 13.9075C35.1961 13.9075 38.0226 16.6586 38.0226 20.0315C38.0226 23.3667 35.1961 26.0989 31.729 26.0989C28.2619 26.0989 25.4354 23.3855 25.4354 20.0315ZM28.5634 20.0315C28.5634 21.765 29.9766 23.1971 31.729 23.1971C33.4814 23.1971 34.8946 21.7839 34.8946 20.0315C34.8946 18.2602 33.4814 16.8282 31.729 16.8282C29.9766 16.8282 28.5634 18.2602 28.5634 20.0315ZM46.238 20.7851C47.1236 19.956 47.4251 18.7123 47.4251 17.9021C47.4251 16.357 46.5018 15.396 45.9553 14.9626C45.2205 14.3784 44.3348 14.1335 42.9781 14.1335H38.8138V25.8915H41.9229V22.3114L44.4667 25.8915H47.8585L44.674 21.6707C45.1451 21.52 45.6915 21.2938 46.238 20.7851ZM41.9418 16.715H42.9593C44.5798 16.715 44.6552 17.8456 44.6552 18.0717C44.6552 18.4862 44.4856 19.4472 42.9593 19.4472H41.9418V16.715ZM60.6152 14.1335H63.3851V25.8915H60.6152V14.1335ZM51.7774 19.3342L56.0171 25.8915H59.2393V14.1335H56.1302V20.6909L51.9282 14.1335H48.7437V25.8915H51.7774V19.3342ZM71.9213 25.8915L67.6628 19.3342V25.8915H64.6479V14.1335H67.8135L72.0155 20.6909V14.1335H75.1434V25.8915H71.9213ZM90.0105 27.6817L83.4155 43.3968H88.0509L89.0872 40.7965H94.3633L95.3997 43.3968H100.035L93.7226 27.6817H90.0105ZM93.3834 37.8193H90.0294L91.7064 32.7882L93.3834 37.8193ZM0.185547 43.3968L6.78061 27.6817H10.4738L16.7863 43.3968H12.1509L11.1145 40.7965H5.8573L4.82093 43.3968H0.185547ZM6.79945 37.8193H10.1535L8.47648 32.7882L6.79945 37.8193ZM25.9626 36.9525L22.6085 27.6817H17.2383V43.3968H21.2142V34.5971L24.4363 43.3968H27.4324L30.6545 34.5406V43.3968H34.6304V27.6817H29.2601L25.9626 36.9525ZM46.2941 43.3968H36.6841V27.6817H46.2941V30.9227H40.7919V33.6738H46.0491V36.9148H40.7919V39.8166H46.2941V43.3968ZM58.8438 36.8394C60.1063 35.7465 60.5397 33.7492 60.5397 32.6751C60.5397 30.6212 59.2395 29.1138 58.4669 28.5296C57.4306 27.7571 56.1493 27.6817 54.2084 27.6817H48.5932V43.3968H52.5502V38.2715L56.0739 43.3968H60.8223L56.7334 37.9888C57.4494 37.8193 57.9959 37.5743 58.8438 36.8394ZM52.5502 30.9227H54.1707C56.658 30.9227 56.7711 32.562 56.7711 32.8824C56.7711 33.4854 56.5261 34.8797 54.1707 34.8797H52.5502V30.9227ZM62.933 27.6817H66.7016V43.3968H62.933V27.6817ZM85.2434 37.3482H80.5892C80.5892 37.3482 79.5717 39.892 77.1032 39.892C74.6348 39.892 72.3736 38.1396 72.3736 35.5204C72.3736 32.5809 74.7102 31.2807 76.9902 31.2807C79.2702 31.2807 80.5327 33.5984 80.5327 33.5984H85.2434C85.3 33.5419 85.3188 33.1462 85.2811 33.0331C84.7347 31.5257 82.4547 27.3802 77.4047 27.3802C71.2619 27.3802 68.1905 31.0923 68.1905 35.4827C68.1905 40.0239 71.8837 43.7171 77.4047 43.7171C82.8504 43.7171 85.1681 38.1961 85.2246 37.9511C85.2623 37.7062 85.2434 37.3482 85.2434 37.3482ZM100.186 50.8585C40.9431 40.2499 0.750899 51.8949 0.750899 51.8949C49.837 44.3577 89.0116 53.2704 90.2553 53.9488C91.0467 53.1385 96.8692 51.3108 100.186 50.8585Z" fill="white"/>
</svg>
